src/Assests/SVG/scroll-down.svg

<svg width="50" height="88" viewBox="0 0 50 88" fill="none" xmlns="http://www.w3.org/2000/svg"><path d="M25.0002 4.1667c6.8937 0 12.5 5.6062 12.5 12.5v16.6666c0 6.8938-5.6063 12.5-12.5 12.5-6.8938 0-12.5-5.6062-12.5-12.5V16.6667c0-6.8938 5.6062-12.5 12.5-12.5Zm0-4.1667C15.796 0 8.3335 7.4625 8.3335 16.6667v16.6666C8.3335 42.5375 15.796 50 25.0002 50c9.2041 0 16.6666-7.4625 16.6666-16.6667V16.6667C41.6668 7.4625 34.2043 0 25.0002 0Z" fill="#000"/><path d="M27.0835 13.0833c0-1.15-.9313-2.0833-2.0833-2.0833-1.1521 0-2.0834.9333-2.0834 2.0833v8.3334c0 1.15.9313 2.0833 2.0834 2.0833 1.152 0 2.0833-.9333 2.0833-2.0833v-8.3334ZM12.5268 66.4365c0-.2051-.0319-.3873-.0957-.5469-.0593-.1595-.1664-.3053-.3213-.4375-.155-.1321-.3737-.2597-.6563-.3828-.278-.1276-.6334-.2575-1.0664-.3896-.474-.1458-.9115-.3076-1.3125-.4854-.3965-.1823-.7428-.3919-1.039-.6289-.2963-.2415-.5264-.5172-.6905-.8271-.164-.3145-.246-.6768-.246-1.0869 0-.4056.0842-.7748.2529-1.1075.1731-.3326.417-.6197.7314-.8613.319-.2461.695-.4352 1.128-.5674.4329-.1367.9114-.205 1.4355-.205.7383 0 1.374.1367 1.9072.4101.5378.2735.9502.6403 1.2373 1.1006.2917.4603.4375.9684.4375 1.5244h-1.7021c0-.3281-.0707-.6175-.212-.8682-.1367-.2552-.3463-.4557-.6289-.6015-.278-.1458-.6311-.2188-1.0595-.2188-.4056 0-.7429.0616-1.0118.1846-.2688.1231-.4693.2894-.6015.499-.1322.2097-.1983.4466-.1983.711 0 .1868.0433.3577.13.5127.0865.1504.2187.2916.3964.4238.1777.1276.401.2484.6699.3623.2689.1139.5856.2233.9502.3281.5515.1641 1.0323.3464 1.4424.5469.4102.196.752.4193 1.0254.6699.2734.2507.4785.5355.6152.8545.1368.3145.2051.6722.2051 1.0733 0 .4192-.0843.7975-.2529 1.1347-.1686.3327-.4102.6175-.7246.8545-.3099.2324-.6836.4124-1.1211.54-.433.1231-.916.1846-1.4492.1846a5.322 5.322 0 0 1-1.415-.1914c-.4604-.1276-.8796-.3213-1.2579-.581-.3782-.2644-.679-.5925-.9023-.9844-.2233-.3965-.335-.8591-.335-1.3877h1.7158c0 .3236.0547.5993.164.8271.114.2279.2712.4147.4718.5606.2005.1413.433.2461.6972.3144.2689.0684.556.1026.8614.1026.401 0 .736-.057 1.0048-.1709.2735-.114.4786-.2735.6153-.4785.1367-.2051.2051-.4421.2051-.711Zm6.6576 1.3877c.2689 0 .5104-.0524.7246-.1572.2188-.1094.3942-.2598.5264-.4512.1367-.1914.2119-.4124.2256-.6631h1.5517c-.0091.4785-.1504.9138-.4238 1.3057-.2734.3919-.6357.7041-1.0869.9365-.4512.2279-.9502.3418-1.4971.3418-.5651 0-1.0573-.0957-1.4765-.2871-.4193-.196-.7679-.4648-1.0459-.8066s-.4877-.736-.6289-1.1826c-.1368-.4467-.2051-.9252-.2051-1.4356v-.2393c0-.5104.0683-.9889.2051-1.4355.1412-.4512.3509-.8477.6289-1.1895.278-.3417.6266-.6084 1.0459-.7998.4192-.1959.9091-.2939 1.4697-.2939.5924 0 1.112.1185 1.5586.3555.4466.2324.7975.5582 1.0527.9775.2598.4147.3942.8978.4033 1.4492H20.661c-.0137-.2734-.0821-.5195-.2051-.7383-.1185-.2233-.2871-.401-.5059-.5332-.2142-.1321-.4716-.1982-.7724-.1982-.3327 0-.6084.0684-.8272.2051-.2187.1321-.3896.3144-.5127.5468-.123.2279-.2119.4854-.2666.7725a5.044 5.044 0 0 0-.0752.8818v.2393c0 .3053.0251.6016.0752.8887.0502.2871.1368.5446.2598.7724.1276.2233.3008.4034.5195.5401.2188.1321.4968.1982.834.1982Zm6.5073-4.8125V69h-1.6475v-7.3965h1.5723l.0752 1.4082Zm2.2627-1.456-.0137 1.5312a3.2263 3.2263 0 0 0-.3281-.041 4.2933 4.2933 0 0 0-.3418-.0137c-.2826 0-.5309.041-.7451.1231-.2142.0774-.3942.1914-.5401.3418-.1412.1458-.2506.3235-.3281.5332-.0775.2096-.123.4443-.1367.7041l-.376.0273c0-.4648.0456-.8955.1367-1.292.0912-.3965.2279-.7451.4102-1.0459.1868-.3008.4193-.5355.6972-.7041.2826-.1686.6084-.2529.9776-.2529.1002 0 .2073.0091.3213.0273.1185.0183.2073.0388.2666.0616Zm1.1 3.8281v-.1572c0-.5332.0775-1.0277.2324-1.4834.155-.4603.3783-.8591.67-1.1963.2962-.3418.6562-.6061 1.08-.793.4284-.1914.9115-.2871 1.4493-.2871.5423 0 1.0253.0957 1.4492.2871.4284.1869.7907.4512 1.0869.793.2962.3372.5218.736.6767 1.1963.155.4557.2325.9502.2325 1.4834v.1572c0 .5332-.0775 1.0277-.2325 1.4834-.1549.4557-.3805.8545-.6767 1.1963-.2962.3372-.6563.6015-1.0801.7929-.4238.1869-.9046.2803-1.4424.2803-.5423 0-1.0276-.0934-1.456-.2803-.4239-.1914-.7839-.4557-1.0801-.7929-.2962-.3418-.5218-.7406-.6768-1.1963-.1549-.4557-.2324-.9502-.2324-1.4834Zm1.6475-.1572v.1572c0 .3327.0342.6471.1025.9433.0684.2963.1755.556.3213.7793.1458.2234.3327.3988.5606.5264.2278.1276.499.1914.8134.1914.3054 0 .5697-.0638.793-.1914.2279-.1276.4147-.303.5605-.5264.1459-.2233.253-.483.3213-.7793.0729-.2962.1094-.6106.1094-.9433v-.1572c0-.3282-.0365-.6381-.1094-.9297-.0683-.2962-.1777-.5583-.3281-.7862-.1458-.2278-.3327-.4056-.5605-.5332-.2233-.1321-.4899-.1982-.7998-.1982-.3099 0-.5788.0661-.8067.1982-.2233.1276-.4079.3054-.5537.5332-.1458.2279-.2529.49-.3213.7862-.0683.2916-.1025.6015-.1025.9297Zm8.934-6.7266V69h-1.6543V58.5h1.6543Zm4.1284 0V69H42.11V58.5h1.6543ZM10.9266 85h-2.126l.0137-1.3604h2.1123c.6152 0 1.1302-.1344 1.5449-.4033.4193-.2689.7337-.6539.9434-1.1552.2142-.5013.3213-1.0984.3213-1.7911v-.54c0-.5378-.0616-1.014-.1846-1.4287-.1185-.4147-.2962-.7634-.5332-1.0459-.2324-.2826-.5195-.4968-.8613-.6426-.3373-.1458-.7269-.2187-1.169-.2187H8.7596v-1.3672h2.2285c.6608 0 1.2647.1116 1.8115.3349.5469.2188 1.0186.5355 1.4151.9502.401.4147.7086.9115.9228 1.4903.2142.5787.3213 1.2259.3213 1.9414v.5263c0 .7155-.1071 1.3627-.3213 1.9414-.2142.5788-.5218 1.0756-.9228 1.4903-.4011.4101-.8796.7269-1.4356.9502-.5514.2187-1.1689.3281-1.8525.3281Zm-1.1758-9.9531V85H8.035v-9.9531h1.7158Zm7.5122 6.3369v-.1572c0-.5332.0774-1.0277.2324-1.4834.1549-.4603.3782-.8591.6699-1.1963.2962-.3418.6563-.6061 1.0801-.793.4284-.1914.9114-.2871 1.4492-.2871.5423 0 1.0254.0957 1.4492.2871.4284.1869.7907.4512 1.0869.793.2963.3372.5219.736.6768 1.1963.1549.4557.2324.9502.2324 1.4834v.1572c0 .5332-.0775 1.0277-.2324 1.4834-.1549.4557-.3805.8545-.6768 1.1963-.2962.3372-.6562.6015-1.08.7929-.4239.1869-.9047.2803-1.4424.2803-.5423 0-1.0277-.0934-1.4561-.2803-.4238-.1914-.7838-.4557-1.0801-.7929-.2962-.3418-.5218-.7406-.6767-1.1963-.155-.4557-.2324-.9502-.2324-1.4834Zm1.6474-.1572v.1572c0 .3327.0342.6471.1026.9433.0683.2963.1754.556.3213.7793.1458.2234.3326.3988.5605.5264s.499.1914.8135.1914c.3053 0 .5696-.0638.793-.1914.2278-.1276.4147-.303.5605-.5264.1458-.2233.2529-.483.3213-.7793.0729-.2962.1094-.6106.1094-.9433v-.1572c0-.3282-.0365-.6381-.1094-.9297-.0684-.2962-.1777-.5583-.3281-.7862-.1459-.2278-.3327-.4056-.5606-.5332-.2233-.1321-.4899-.1982-.7998-.1982-.3099 0-.5788.0661-.8066.1982-.2233.1276-.4079.3054-.5537.5332-.1459.2279-.253.49-.3213.7862-.0684.2916-.1026.6015-.1026.9297Zm9.1801 2.1328 1.709-5.7559h1.0528l-.2871 1.7227L28.8425 85h-.9434l.1914-1.6406Zm-1.0048-5.7559 1.333 5.7832L28.528 85h-1.0527l-2.0029-7.3965h1.6133Zm5.3662 5.7149 1.292-5.7149h1.6064L33.3542 85h-1.0527l.1504-1.6816ZM31.03 77.6035l1.6885 5.6875.2119 1.709h-.9434l-1.7431-5.6807-.2871-1.7158H31.03Zm7.6352 1.5791V85h-1.6475v-7.3965h1.5518l.0957 1.5791Zm-.2939 1.8457-.5333-.0068c.0046-.5241.0775-1.0049.2188-1.4424.1458-.4375.3464-.8135.6016-1.1279.2597-.3145.5696-.556.9296-.7246.3601-.1732.7611-.2598 1.2032-.2598.3554 0 .6767.0501.9638.1504.2917.0957.5401.2529.7452.4717.2096.2187.3691.5035.4785.8545.1093.3463.164.7724.164 1.2783V85h-1.6543v-4.7852c0-.3554-.0524-.6357-.1572-.8408-.1002-.2096-.2484-.3577-.4443-.4443-.1914-.0912-.4307-.1367-.7178-.1367-.2826 0-.5355.0592-.7588.1777a1.707 1.707 0 0 0-.5674.4854c-.1504.205-.2666.442-.3486.7109-.082.2689-.123.556-.123.8613Z" fill="#000"/></svg>

<svg width="50" height="88" viewBox="0 0 50 88" fill="none" xmlns="http://www.w3.org/2000/svg">
<path d="M25.0002 4.16667C31.8939 4.16667 37.5002 9.77292 37.5002 16.6667V33.3333C37.5002 40.2271 31.8939 45.8333 25.0002 45.8333C18.1064 45.8333 12.5002 40.2271 12.5002 33.3333V16.6667C12.5002 9.77292 18.1064 4.16667 25.0002 4.16667ZM25.0002 0C15.796 0 8.3335 7.4625 8.3335 16.6667V33.3333C8.3335 42.5375 15.796 50 25.0002 50C34.2043 50 41.6668 42.5375 41.6668 33.3333V16.6667C41.6668 7.4625 34.2043 0 25.0002 0Z" fill="black"/>
<path d="M27.0835 13.0833C27.0835 11.9333 26.1522 11 25.0002 11C23.8481 11 22.9168 11.9333 22.9168 13.0833V21.4167C22.9168 22.5667 23.8481 23.5 25.0002 23.5C26.1522 23.5 27.0835 22.5667 27.0835 21.4167V13.0833Z" fill="black"/>
<path d="M12.5268 66.4365C12.5268 66.2314 12.4949 66.0492 12.4311 65.8896C12.3718 65.7301 12.2647 65.5843 12.1098 65.4521C11.9548 65.32 11.7361 65.1924 11.4535 65.0693C11.1755 64.9417 10.8201 64.8118 10.3871 64.6797C9.91315 64.5339 9.47565 64.3721 9.07461 64.1943C8.67813 64.012 8.33177 63.8024 8.03555 63.5654C7.73932 63.3239 7.50918 63.0482 7.34512 62.7383C7.18106 62.4238 7.09902 62.0615 7.09902 61.6514C7.09902 61.2458 7.18333 60.8766 7.35195 60.5439C7.52513 60.2113 7.76895 59.9242 8.0834 59.6826C8.40241 59.4365 8.77839 59.2474 9.21133 59.1152C9.64427 58.9785 10.1228 58.9102 10.6469 58.9102C11.3852 58.9102 12.0209 59.0469 12.5541 59.3203C13.0919 59.5938 13.5043 59.9606 13.7914 60.4209C14.0831 60.8812 14.2289 61.3893 14.2289 61.9453H12.5268C12.5268 61.6172 12.4561 61.3278 12.3148 61.0771C12.1781 60.8219 11.9685 60.6214 11.6859 60.4756C11.4079 60.3298 11.0548 60.2568 10.6264 60.2568C10.2208 60.2568 9.88353 60.3184 9.61465 60.4414C9.34577 60.5645 9.14525 60.7308 9.01309 60.9404C8.88092 61.1501 8.81484 61.387 8.81484 61.6514C8.81484 61.8382 8.85814 62.0091 8.94473 62.1641C9.03132 62.3145 9.16348 62.4557 9.34121 62.5879C9.51895 62.7155 9.74225 62.8363 10.0111 62.9502C10.28 63.0641 10.5967 63.1735 10.9613 63.2783C11.5128 63.4424 11.9936 63.6247 12.4037 63.8252C12.8139 64.0212 13.1557 64.2445 13.4291 64.4951C13.7025 64.7458 13.9076 65.0306 14.0443 65.3496C14.1811 65.6641 14.2494 66.0218 14.2494 66.4229C14.2494 66.8421 14.1651 67.2204 13.9965 67.5576C13.8279 67.8903 13.5863 68.1751 13.2719 68.4121C12.962 68.6445 12.5883 68.8245 12.1508 68.9521C11.7178 69.0752 11.2348 69.1367 10.7016 69.1367C10.223 69.1367 9.75137 69.0729 9.28652 68.9453C8.82624 68.8177 8.40697 68.624 8.02871 68.3643C7.65046 68.0999 7.34967 67.7718 7.12637 67.3799C6.90306 66.9834 6.79141 66.5208 6.79141 65.9922H8.50723C8.50723 66.3158 8.56191 66.5915 8.67129 66.8193C8.78522 67.0472 8.94245 67.234 9.14297 67.3799C9.34349 67.5212 9.57591 67.626 9.84023 67.6943C10.1091 67.7627 10.3962 67.7969 10.7016 67.7969C11.1026 67.7969 11.4376 67.7399 11.7064 67.626C11.9799 67.512 12.185 67.3525 12.3217 67.1475C12.4584 66.9424 12.5268 66.7054 12.5268 66.4365ZM19.1844 67.8242C19.4533 67.8242 19.6948 67.7718 19.909 67.667C20.1278 67.5576 20.3032 67.4072 20.4354 67.2158C20.5721 67.0244 20.6473 66.8034 20.661 66.5527H22.2127C22.2036 67.0312 22.0623 67.4665 21.7889 67.8584C21.5155 68.2503 21.1532 68.5625 20.702 68.7949C20.2508 69.0228 19.7518 69.1367 19.2049 69.1367C18.6398 69.1367 18.1476 69.041 17.7284 68.8496C17.3091 68.6536 16.9605 68.3848 16.6825 68.043C16.4045 67.7012 16.1948 67.307 16.0536 66.8604C15.9168 66.4137 15.8485 65.9352 15.8485 65.4248V65.1855C15.8485 64.6751 15.9168 64.1966 16.0536 63.75C16.1948 63.2988 16.4045 62.9023 16.6825 62.5605C16.9605 62.2188 17.3091 61.9521 17.7284 61.7607C18.1476 61.5648 18.6375 61.4668 19.1981 61.4668C19.7905 61.4668 20.3101 61.5853 20.7567 61.8223C21.2033 62.0547 21.5542 62.3805 21.8094 62.7998C22.0692 63.2145 22.2036 63.6976 22.2127 64.249H20.661C20.6473 63.9756 20.5789 63.7295 20.4559 63.5107C20.3374 63.2874 20.1688 63.1097 19.95 62.9775C19.7358 62.8454 19.4784 62.7793 19.1776 62.7793C18.8449 62.7793 18.5692 62.8477 18.3504 62.9844C18.1317 63.1165 17.9608 63.2988 17.8377 63.5312C17.7147 63.7591 17.6258 64.0166 17.5711 64.3037C17.521 64.5863 17.4959 64.8802 17.4959 65.1855V65.4248C17.4959 65.7301 17.521 66.0264 17.5711 66.3135C17.6213 66.6006 17.7079 66.8581 17.8309 67.0859C17.9585 67.3092 18.1317 67.4893 18.3504 67.626C18.5692 67.7581 18.8472 67.8242 19.1844 67.8242ZM25.6917 63.0117V69H24.0442V61.6035H25.6165L25.6917 63.0117ZM27.9544 61.5557L27.9407 63.0869C27.8404 63.0687 27.7311 63.055 27.6126 63.0459C27.4986 63.0368 27.3847 63.0322 27.2708 63.0322C26.9882 63.0322 26.7399 63.0732 26.5257 63.1553C26.3115 63.2327 26.1315 63.3467 25.9856 63.4971C25.8444 63.6429 25.735 63.8206 25.6575 64.0303C25.58 64.2399 25.5345 64.4746 25.5208 64.7344L25.1448 64.7617C25.1448 64.2969 25.1904 63.8662 25.2815 63.4697C25.3727 63.0732 25.5094 62.7246 25.6917 62.4238C25.8785 62.123 26.111 61.8883 26.3889 61.7197C26.6715 61.5511 26.9973 61.4668 27.3665 61.4668C27.4667 61.4668 27.5738 61.4759 27.6878 61.4941C27.8063 61.5124 27.8951 61.5329 27.9544 61.5557ZM29.0544 65.3838V65.2266C29.0544 64.6934 29.1319 64.1989 29.2868 63.7432C29.4418 63.2829 29.6651 62.8841 29.9568 62.5469C30.253 62.2051 30.613 61.9408 31.0368 61.7539C31.4652 61.5625 31.9483 61.4668 32.4861 61.4668C33.0284 61.4668 33.5114 61.5625 33.9353 61.7539C34.3637 61.9408 34.726 62.2051 35.0222 62.5469C35.3184 62.8841 35.544 63.2829 35.6989 63.7432C35.8539 64.1989 35.9314 64.6934 35.9314 65.2266V65.3838C35.9314 65.917 35.8539 66.4115 35.6989 66.8672C35.544 67.3229 35.3184 67.7217 35.0222 68.0635C34.726 68.4007 34.3659 68.665 33.9421 68.8564C33.5183 69.0433 33.0375 69.1367 32.4997 69.1367C31.9574 69.1367 31.4721 69.0433 31.0437 68.8564C30.6198 68.665 30.2598 68.4007 29.9636 68.0635C29.6674 67.7217 29.4418 67.3229 29.2868 66.8672C29.1319 66.4115 29.0544 65.917 29.0544 65.3838ZM30.7019 65.2266V65.3838C30.7019 65.7165 30.7361 66.0309 30.8044 66.3271C30.8728 66.6234 30.9799 66.8831 31.1257 67.1064C31.2715 67.3298 31.4584 67.5052 31.6863 67.6328C31.9141 67.7604 32.1853 67.8242 32.4997 67.8242C32.8051 67.8242 33.0694 67.7604 33.2927 67.6328C33.5206 67.5052 33.7074 67.3298 33.8532 67.1064C33.9991 66.8831 34.1062 66.6234 34.1745 66.3271C34.2474 66.0309 34.2839 65.7165 34.2839 65.3838V65.2266C34.2839 64.8984 34.2474 64.5885 34.1745 64.2969C34.1062 64.0007 33.9968 63.7386 33.8464 63.5107C33.7006 63.2829 33.5137 63.1051 33.2859 62.9775C33.0626 62.8454 32.796 62.7793 32.4861 62.7793C32.1762 62.7793 31.9073 62.8454 31.6794 62.9775C31.4561 63.1051 31.2715 63.2829 31.1257 63.5107C30.9799 63.7386 30.8728 64.0007 30.8044 64.2969C30.7361 64.5885 30.7019 64.8984 30.7019 65.2266ZM39.6359 58.5V69H37.9816V58.5H39.6359ZM43.7643 58.5V69H42.11V58.5H43.7643ZM10.9266 85H8.80062L8.8143 83.6396H10.9266C11.5418 83.6396 12.0568 83.5052 12.4715 83.2363C12.8908 82.9674 13.2052 82.5824 13.4149 82.0811C13.6291 81.5798 13.7362 80.9827 13.7362 80.29V79.75C13.7362 79.2122 13.6746 78.736 13.5516 78.3213C13.4331 77.9066 13.2554 77.5579 13.0184 77.2754C12.786 76.9928 12.4989 76.7786 12.1571 76.6328C11.8198 76.487 11.4302 76.4141 10.9881 76.4141H8.75961V75.0469H10.9881C11.6489 75.0469 12.2528 75.1585 12.7996 75.3818C13.3465 75.6006 13.8182 75.9173 14.2147 76.332C14.6157 76.7467 14.9233 77.2435 15.1375 77.8223C15.3517 78.401 15.4588 79.0482 15.4588 79.7637V80.29C15.4588 81.0055 15.3517 81.6527 15.1375 82.2314C14.9233 82.8102 14.6157 83.307 14.2147 83.7217C13.8136 84.1318 13.3351 84.4486 12.7791 84.6719C12.2277 84.8906 11.6102 85 10.9266 85ZM9.75082 75.0469V85H8.035V75.0469H9.75082ZM17.263 81.3838V81.2266C17.263 80.6934 17.3404 80.1989 17.4954 79.7432C17.6503 79.2829 17.8736 78.8841 18.1653 78.5469C18.4615 78.2051 18.8216 77.9408 19.2454 77.7539C19.6738 77.5625 20.1568 77.4668 20.6946 77.4668C21.2369 77.4668 21.72 77.5625 22.1438 77.7539C22.5722 77.9408 22.9345 78.2051 23.2307 78.5469C23.527 78.8841 23.7526 79.2829 23.9075 79.7432C24.0624 80.1989 24.1399 80.6934 24.1399 81.2266V81.3838C24.1399 81.917 24.0624 82.4115 23.9075 82.8672C23.7526 83.3229 23.527 83.7217 23.2307 84.0635C22.9345 84.4007 22.5745 84.665 22.1507 84.8564C21.7268 85.0433 21.246 85.1367 20.7083 85.1367C20.166 85.1367 19.6806 85.0433 19.2522 84.8564C18.8284 84.665 18.4684 84.4007 18.1721 84.0635C17.8759 83.7217 17.6503 83.3229 17.4954 82.8672C17.3404 82.4115 17.263 81.917 17.263 81.3838ZM18.9104 81.2266V81.3838C18.9104 81.7165 18.9446 82.0309 19.013 82.3271C19.0813 82.6234 19.1884 82.8831 19.3343 83.1064C19.4801 83.3298 19.6669 83.5052 19.8948 83.6328C20.1227 83.7604 20.3938 83.8242 20.7083 83.8242C21.0136 83.8242 21.2779 83.7604 21.5013 83.6328C21.7291 83.5052 21.916 83.3298 22.0618 83.1064C22.2076 82.8831 22.3147 82.6234 22.3831 82.3271C22.456 82.0309 22.4925 81.7165 22.4925 81.3838V81.2266C22.4925 80.8984 22.456 80.5885 22.3831 80.2969C22.3147 80.0007 22.2054 79.7386 22.055 79.5107C21.9091 79.2829 21.7223 79.1051 21.4944 78.9775C21.2711 78.8454 21.0045 78.7793 20.6946 78.7793C20.3847 78.7793 20.1158 78.8454 19.888 78.9775C19.6647 79.1051 19.4801 79.2829 19.3343 79.5107C19.1884 79.7386 19.0813 80.0007 19.013 80.2969C18.9446 80.5885 18.9104 80.8984 18.9104 81.2266ZM28.0905 83.3594L29.7995 77.6035H30.8523L30.5652 79.3262L28.8425 85H27.8991L28.0905 83.3594ZM27.0857 77.6035L28.4187 83.3867L28.528 85H27.4753L25.4724 77.6035H27.0857ZM32.4519 83.3184L33.7439 77.6035H35.3503L33.3542 85H32.3015L32.4519 83.3184ZM31.03 77.6035L32.7185 83.291L32.9304 85H31.987L30.2439 79.3193L29.9568 77.6035H31.03ZM38.6652 79.1826V85H37.0177V77.6035H38.5695L38.6652 79.1826ZM38.3713 81.0283L37.838 81.0215C37.8426 80.4974 37.9155 80.0166 38.0568 79.5791C38.2026 79.1416 38.4032 78.7656 38.6584 78.4512C38.9181 78.1367 39.228 77.8952 39.588 77.7266C39.9481 77.5534 40.3491 77.4668 40.7912 77.4668C41.1466 77.4668 41.4679 77.5169 41.755 77.6172C42.0467 77.7129 42.2951 77.8701 42.5002 78.0889C42.7098 78.3076 42.8693 78.5924 42.9787 78.9434C43.088 79.2897 43.1427 79.7158 43.1427 80.2217V85H41.4884V80.2148C41.4884 79.8594 41.436 79.5791 41.3312 79.374C41.231 79.1644 41.0828 79.0163 40.8869 78.9297C40.6955 78.8385 40.4562 78.793 40.1691 78.793C39.8865 78.793 39.6336 78.8522 39.4103 78.9707C39.187 79.0892 38.9979 79.251 38.8429 79.4561C38.6925 79.6611 38.5763 79.8981 38.4943 80.167C38.4123 80.4359 38.3713 80.723 38.3713 81.0283Z" fill="black"/>
</svg>
